X:1
T:Leave It There
T:Leave It There
T:Charles Albert Tindley
T:Charles Albert Tindley, 1916
T:Public Domain Courtesy of the Cyber Hymnal™
T:Public Domain Courtesy of the Cyber Hymnal™
C:Charles Albert Tindley
Z:Public Domain
Z:Courtesy of the Cyber Hymnal™
%%score ( 1 2 ) ( 3 4 )
L:1/8
Q:1/4=100
M:4/4
K:G
V:1 treble 
V:2 treble 
V:3 bass 
V:4 bass 
V:1
 [B,G]>[CA] | [DB]>[DB] [GB]>[FB] [=FB]2 [FA]>[FG] | [EA]>[EG] [EG]>[CE] [B,G]2 [B,G]>[B,A] | %3
w: 1.~If the|world from you with- hold of its|sil- ver and its gold, And you|
w: 2.~If your|bo- dy suf- fers pain and your|health you can’t re- gain, And your|
w: 3.~When your|en- e- mies as- sail and your|heart be- gins to fail, Don’t for-|
w: 4.~When your|youth- ful days are gone and old|age is steal- ing on, And your|
 [DB]>[DB] [DB]>[DB] [^CB]>[CB] [CA]>[CG] | [CA]6 [B,G]>[CA] | %5
w: have to get a- long with mea- ger|fare, Just re-|
w: soul is al- most sink- ing in des-|pair, Je- sus|
w: get that God in heav- en an- swers|prayer; He will|
w: bo- dy bends be- neath the weight of|care; He will|
 [DB]>[DB] [GB]>[FB] [=FB]2 [FA]>[FG] | [EA]>[EG] [EG]>[CE] [EG]2 [EG]>[GA] | %7
w: mem- ber, in His Word, how He|feeds the lit- tle bird; Take your|
w: knows the pain you feel, He can|save and He can heal; Take your|
w: make a way for you and will|lead you safe- ly through. Take your|
w: ne- ver leave you then, He’ll go|with you to the end. Take your|
 [GB]>[GB] [GB]>[GB] [GA]>[EG] [FA]>[FB] | [DG]6 ||"^Refrain" [GB]>[Ac] | d4- d2 [FB]>[FA] | %11
w: bur- den to the Lord and leave it|there.|||
w: bur- den to the Lord and leave it|there.|Leave it|there, * leave it|
w: bur- den to the Lord and leave it|there.|||
w: bur- den to the Lord and leave it|there.|||
 (G2- G2-) [=FG]2 [FA]>[FB] | [Ec]>[Ec] [Ec]>[Ec] | [Fc]>[Fc] [FB]>[F^A] | [GB]4- [GB]2 [GB]>[Ac] | %15
w: ||||
w: there, * Take your bur-|* den to the|Lord and leave it|there. * If you|
w: ||||
w: ||||
 [Bd]>[Gd] [Fd]>[Fd] [=Fd]2 [FB]>[FA] | [EG]>[EA] [EG]>[CE] [EG]2 [EG]>[GA] | %17
w: ||
w: trust and ne- ver doubt, He will|surel- y bring you out. Take your|
w: ||
w: ||
 [GB]>[GB] [GB]>[DG] [FA]>[^E^G] [FA]>[FB] | G4- G6 |] %19
w: ||
w: bur- den to the Lord and leave it|there. *|
w: ||
w: ||
V:2
 x2 | x8 | x8 | x8 | x8 | x8 | x8 | x8 | x6 || x2 | (B2 G>G F2) x2 | x2 D>E x4 | x4 | x4 | x8 | %15
 x8 | x8 | x8 | G4- G6 |] %19
V:3
 [G,,G,]>[G,,G,] | [G,,G,]>[G,,G,] [G,,G,]>[G,,G,] [G,,G,]2 [A,,G,]>[B,,G,] | %2
 [C,C]>[C,C] [C,C]>[C,G,] [G,,G,]2 [D,G,]>[D,F,] | %3
 G,>G, [F,G,]>[F,G,] [E,G,]>[E,G,] [A,,G,]>[A,,E,] | [D,F,]6 [D,G,]>[D,F,] | %5
 [G,,G,]>[G,,G,] [G,,G,]>[G,,G,] [G,,G,]2 [A,,G,]>[B,,G,] | %6
 [C,C]>[C,C] [C,C]>[C,G,] [C,C]2 [^C,A,]>[E,^C] | %7
 [D,D]>[D,D] [D,D]>[D,D] [E,^C]>[E,C] [D,=C]>[D,D] | [G,B,]6 || z2 | %10
 z2 ([D,B,]>[D,B,] [D,C]2) [D,D]>[D,C] | ([G,B,]2 [G,B,]>[G,B,] [G,B,]2) [G,B,]>[G,D] | %12
 [C,C]>[C,C] [C,C]>[C,C] | [D,A,]>[D,A,] [D,D]>[D,D] | D4- D2 z2 | %15
 [G,D]>[G,B,] [A,C]>[A,C] [B,D]2 [G,D]>[G,D] | [C,E]>[C,C] [C,C]>[C,G,] [C,C]2 [^C,A,]>[E,^C] | %17
 [D,D]>[D,D] [D,D]>[D,B,] [D,C]>[D,B,] [D,C]>[D,D] | (B,2 C>C [G,B,]6) |] %19
V:4
 x2 | x8 | x8 | G,>G, x6 | x8 | x8 | x8 | x8 | x6 || x2 | x8 | x8 | x4 | x4 | (G,2 D,>D, G,2) x2 | %15
 x8 | x8 | x8 | G,4- x6 |] %19

